X: 43023
T: Willy Taylor's High Tea
R: barndance
M: 4/4
K: Gmajor
|:d2|B2 Bc BAGA|B2 d2 e4|d2 gd B2 dG|cBAG A2 FA|
B2 cA BAGA|B2 d2 e4|d2 g2 B2 dG|A2 GF G2:|
|:g2|e2 dc B2 GA|B2 d2 e4|d2 gd B2 dG|
[1 cBAG A2 gf|e2 dc BAGA|B2 d2 e4|d2 g2 B2 G2|A2 GF G2:|
[2 cBAG A2 FA|B2 Bc BAGA|B2 d2 e4|d2 g2 B2 dG|A2 G2 G2||

